austria/municipalities/31301.svg

<?xml version="1.0" encoding="UTF-8" standalone="no"?>
<!-- Created with Inkscape (http://www.inkscape.org/) -->

<svg
   xmlns:dc="http://purl.org/dc/elements/1.1/"
   xmlns:cc="http://creativecommons.org/ns#"
   xmlns:rdf="http://www.w3.org/1999/02/22-rdf-syntax-ns#"
   xmlns:svg="http://www.w3.org/2000/svg"
   xmlns="http://www.w3.org/2000/svg"
   xmlns:sodipodi="http://sodipodi.sourceforge.net/DTD/sodipodi-0.dtd"
   xmlns:inkscape="http://www.inkscape.org/namespaces/inkscape"
   width="696.38226"
   height="747.77148"
   id="svg4047"
   version="1.1"
   inkscape:version="0.48.4 r9939"
   sodipodi:docname="AUT Aggsbach COA.svg">
  <defs
     id="defs4049">
    <inkscape:path-effect
       effect="spiro"
       id="path-effect5622"
       is_visible="true" />
    <inkscape:path-effect
       effect="spiro"
       id="path-effect5472"
       is_visible="true" />
    <inkscape:path-effect
       effect="spiro"
       id="path-effect5401"
       is_visible="true" />
    <inkscape:path-effect
       effect="spiro"
       id="path-effect5329"
       is_visible="true" />
    <inkscape:path-effect
       effect="spiro"
       id="path-effect4966"
       is_visible="true" />
    <inkscape:path-effect
       effect="spiro"
       id="path-effect4966-4"
       is_visible="true" />
    <inkscape:path-effect
       effect="spiro"
       id="path-effect5401-1"
       is_visible="true" />
    <inkscape:path-effect
       effect="spiro"
       id="path-effect5472-3"
       is_visible="true" />
    <inkscape:path-effect
       effect="spiro"
       id="path-effect5472-3-1"
       is_visible="true" />
    <inkscape:path-effect
       effect="spiro"
       id="path-effect5472-35"
       is_visible="true" />
    <inkscape:path-effect
       effect="spiro"
       id="path-effect5622-3"
       is_visible="true" />
  </defs>
  <sodipodi:namedview
     id="base"
     pagecolor="#ffffff"
     bordercolor="#666666"
     borderopacity="1.0"
     inkscape:pageopacity="0.0"
     inkscape:pageshadow="2"
     inkscape:zoom="1.0471214"
     inkscape:cx="348.18434"
     inkscape:cy="373.87938"
     inkscape:document-units="px"
     inkscape:current-layer="layer1"
     showgrid="false"
     inkscape:window-width="1280"
     inkscape:window-height="998"
     inkscape:window-x="-4"
     inkscape:window-y="-4"
     inkscape:window-maximized="1"
     inkscape:snap-midpoints="true"
     inkscape:snap-smooth-nodes="true"
     inkscape:object-nodes="true"
     fit-margin-top="0"
     fit-margin-left="0"
     fit-margin-right="0"
     fit-margin-bottom="0"
     inkscape:snap-nodes="false" />
  <metadata
     id="metadata4052">
    <rdf:RDF>
      <cc:Work
         rdf:about="">
        <dc:format>image/svg+xml</dc:format>
        <dc:type
           rdf:resource="http://purl.org/dc/dcmitype/StillImage" />
        <dc:title></dc:title>
      </cc:Work>
    </rdf:RDF>
  </metadata>
  <g
     inkscape:label="Ebene 1"
     inkscape:groupmode="layer"
     id="layer1"
     transform="translate(-406.70907,-250.46875)">
    <path
       style="fill:#ffd700;fill-opacity:1;stroke:none"
       d="m 417.75695,255.63497 c -6.83338,74.42721 -7.73326,149.43846 -2.6867,224.01855 7.16559,105.89581 27.18485,213.28561 79.2472,304.7204 57.14397,100.35942 152.43125,176.68221 260.57504,208.71282 108.14391,-32.03061 203.43295,-108.3534 260.57691,-208.71282 52.0623,-91.43479 72.0815,-198.82459 79.2471,-304.7204 5.0466,-74.58009 4.1468,-149.59134 -2.6866,-224.01855 H 754.89249 z"
       id="path1652-4-2-3"
       inkscape:connector-curvature="0" />
    <path
       style="fill:#0033ff;fill-opacity:1;stroke:#000000;stroke-width:8;stroke-linecap:butt;stroke-linejoin:round;stroke-miterlimit:4;stroke-opacity:1;stroke-dasharray:none"
       d="M 615.96875 5.15625 C 598.82261 40.199176 584.42573 77.64286 555.65625 102.5625 C 507.33028 144.42166 429.85722 141.14087 381.53125 183 C 333.20529 224.85915 325.38846 301.9846 277.0625 343.84375 C 228.73655 385.70289 151.26348 382.42208 102.9375 424.28125 C 88.672846 436.63705 73.760553 455.74089 59.78125 476.5 C 67.857353 496.18658 77.047344 515.38407 87.59375 533.90625 C 100.28145 556.18909 114.85959 577.27751 131.03125 596.96875 C 148.68322 568.29174 169.11591 539.50277 188.3125 522.875 C 236.63843 481.01585 314.11156 484.29664 362.4375 442.4375 C 410.76347 400.57835 418.54907 323.39039 466.875 281.53125 C 515.20098 239.6721 592.674 242.98413 641 201.125 C 663.98515 181.21561 677.81374 153.3112 691.1875 125.03125 C 690.93202 85.011671 688.97039 44.996841 685.3125 5.15625 L 615.96875 5.15625 z "
       transform="translate(406.70907,250.46875)"
       id="path5327-6" />
    <path
       inkscape:connector-curvature="0"
       style="fill:#009900;stroke:#000000;stroke-width:8;stroke-linecap:round;stroke-linejoin:round;stroke-miterlimit:4;stroke-opacity:1;stroke-dasharray:none;fill-opacity:1"
       d="m 743.56124,735.90625 c -2.56409,0 -5.1438,0.39882 -7.5,1.21875 -22.55059,7.84739 -39.87404,27.0045 -56.15625,44.46875 -13.21298,14.17222 -24.98538,29.84971 -35.1875,46.4375 -8.05982,-6.4765 -16.73039,-11.92502 -26.375,-15.28125 -2.3562,-0.81993 -4.90466,-1.21875 -7.46875,-1.21875 -2.56409,0 -5.1438,0.39882 -7.5,1.21875 -22.55059,7.84739 -39.87404,27.0045 -56.15625,44.46875 -0.20536,0.22027 -0.42033,0.43527 -0.625,0.65625 55.64841,63.77397 128.47728,111.57272 208.3125,135.21875 74.40449,-22.0375 142.72081,-65.03304 196.71875,-122.40625 -3.7825,-4.61374 -7.69447,-9.1188 -11.75,-13.46875 -16.28221,-17.46425 -33.60566,-36.62136 -56.15625,-44.46875 -4.7124,-1.63987 -10.25635,-1.63987 -14.96875,0 -9.64461,3.35623 -18.31518,8.80475 -26.375,15.28125 -10.2021,-16.58779 -21.97452,-32.26528 -35.1875,-46.4375 -16.28221,-17.46425 -33.60566,-36.62136 -56.15625,-44.46875 -2.3562,-0.81993 -4.90466,-1.21875 -7.46875,-1.21875 z"
       id="path5399-8" />
    <path
       style="fill:none;stroke:#000000;stroke-width:8;stroke-linecap:round;stroke-linejoin:miter;stroke-miterlimit:4;stroke-opacity:1;stroke-dasharray:none"
       d="m 644.71749,828.03125 c 9.05077,7.59219 17.39841,16.02224 24.90132,25.14715 7.2086,8.76698 13.63737,18.17493 19.1856,28.07649"
       id="path5470-4"
       inkscape:path-effect="#path-effect5472-35"
       inkscape:original-d="m 644.71749,828.03125 c 0,0 17.39257,16.04878 24.90132,25.14715 7.215,8.74244 19.1856,28.07649 19.1856,28.07649"
       inkscape:connector-curvature="0"
       sodipodi:nodetypes="cac" />
    <path
       style="fill:none;stroke:#000000;stroke-width:8;stroke-linecap:round;stroke-linejoin:miter;stroke-miterlimit:4;stroke-opacity:1;stroke-dasharray:none"
       d="m 842.37374,828.03126 c 3.89033,5.44563 7.51279,11.08261 10.84993,16.88374 3.8165,6.63443 7.25969,13.48358 10.30787,20.50425"
       id="path5470-7-0"
       inkscape:path-effect="#path-effect5472-3-1"
       inkscape:original-d="m 842.37374,828.03126 c 0,0 7.53463,11.07321 10.84993,16.88374 3.79106,6.64436 10.30787,20.50425 10.30787,20.50425"
       inkscape:connector-curvature="0"
       sodipodi:nodetypes="cac" />
    <path
       style="fill:none;stroke:#000000;stroke-width:10.3125;stroke-linecap:butt;stroke-linejoin:round;stroke-miterlimit:4;stroke-opacity:1;stroke-dasharray:none"
       d="m 417.75695,255.63497 c -6.83338,74.42721 -7.73326,149.43846 -2.6867,224.01855 7.16559,105.89581 27.18485,213.28561 79.2472,304.7204 57.14397,100.35942 152.43125,176.68221 260.57504,208.71282 108.14391,-32.03061 203.43295,-108.3534 260.57691,-208.71282 52.0623,-91.43479 72.0815,-198.82459 79.2471,-304.7204 5.0466,-74.58009 4.1468,-149.59134 -2.6866,-224.01855 H 754.89249 z"
       id="path1652-4-2"
       inkscape:connector-curvature="0" />
    <g
       id="g5669"
       transform="matrix(0.8660254,-0.5,0.5,0.8660254,-1284.2406,805.5763)"
       style="stroke:#000000;stroke-opacity:1;fill:#884411;fill-opacity:1">
      <path
         sodipodi:nodetypes="csscaccsc"
         inkscape:connector-curvature="0"
         id="path5620"
         d="m 1796.9971,606.25 c 0,0 -18.181,20.0422 -23.0488,32.09375 -10.6346,26.32812 -10.4589,55.57 -11.7917,83.6875 -0.9346,19.71495 2.6723,59.15625 2.6723,59.15625 0,0 21.3629,4.00069 32.1682,4 10.7943,-6.8e-4 32.1349,-4 32.1349,-4 0,0 3.6068,-39.4413 2.6724,-59.15625 -1.333,-28.1175 -1.1572,-57.35938 -11.7918,-83.6875 C 1815.1447,626.2922 1796.9971,606.25 1796.9971,606.25 z"
         style="fill:#884411;stroke:#000000;stroke-width:5;stroke-linecap:round;stroke-linejoin:round;stroke-miterlimit:4;stroke-opacity:1;stroke-dasharray:none;fill-opacity:1" />
      <path
         inkscape:connector-curvature="0"
         id="path5646"
         d="m 1781.4492,465.375 15.5312,260.1875 15.5313,-260.1875 -15.5313,0 -15.5312,0 z"
         style="fill:#884411;stroke:#000000;stroke-width:5;stroke-linecap:round;stroke-linejoin:round;stroke-miterlimit:4;stroke-opacity:1;stroke-dasharray:none;fill-opacity:1" />
      <rect
         rx="9.0228643"
         ry="9.0228643"
         y="438.32135"
         x="1761.2682"
         height="27.053635"
         width="71.424538"
         id="rect5667"
         style="fill:#884411;fill-opacity:1;stroke:#000000;stroke-width:5;stroke-linecap:round;stroke-linejoin:round;stroke-miterlimit:4;stroke-opacity:1;stroke-dasharray:none;stroke-dashoffset:3.11810971000000010" />
    </g>
    <g
       id="g5669-5"
       transform="matrix(-0.8660254,-0.5,-0.5,0.8660254,2414.6065,805.5763)"
       style="stroke:#000000;stroke-opacity:1;fill:#884411;fill-opacity:1">
      <path
         sodipodi:nodetypes="csscaccsc"
         inkscape:connector-curvature="0"
         id="path5620-4"
         d="m 1796.9971,606.25 c 0,0 -18.181,20.0422 -23.0488,32.09375 -10.6346,26.32812 -10.4589,55.57 -11.7917,83.6875 -0.9346,19.71495 2.6723,59.15625 2.6723,59.15625 0,0 21.3629,4.00069 32.1682,4 10.7943,-6.8e-4 32.1349,-4 32.1349,-4 0,0 3.6068,-39.4413 2.6724,-59.15625 -1.333,-28.1175 -1.1572,-57.35938 -11.7918,-83.6875 C 1815.1447,626.2922 1796.9971,606.25 1796.9971,606.25 z"
         style="fill:#884411;stroke:#000000;stroke-width:5;stroke-linecap:round;stroke-linejoin:round;stroke-miterlimit:4;stroke-opacity:1;stroke-dasharray:none;fill-opacity:1" />
      <path
         inkscape:connector-curvature="0"
         id="path5646-2"
         d="m 1781.4492,465.375 15.5312,260.1875 15.5313,-260.1875 -15.5313,0 -15.5312,0 z"
         style="fill:#884411;stroke:#000000;stroke-width:5;stroke-linecap:round;stroke-linejoin:round;stroke-miterlimit:4;stroke-opacity:1;stroke-dasharray:none;fill-opacity:1" />
      <rect
         rx="9.0228643"
         ry="9.0228643"
         y="438.32135"
         x="1761.2682"
         height="27.053635"
         width="71.424538"
         id="rect5667-0"
         style="fill:#884411;fill-opacity:1;stroke:#000000;stroke-width:5;stroke-linecap:round;stroke-linejoin:round;stroke-miterlimit:4;stroke-opacity:1;stroke-dasharray:none;stroke-dashoffset:3.11810971000000010" />
    </g>
  </g>
</svg>

<svg xmlns="http://www.w3.org/2000/svg" width="696.382" height="747.771"><path style="fill:gold;fill-opacity:1;stroke:none" d="M417.757 255.635a1410.41 1410.41 0 0 0-2.687 224.019c7.166 105.895 27.185 213.285 79.247 304.72 57.144 100.36 152.432 176.682 260.575 208.713 108.144-32.03 203.433-108.354 260.577-208.713 52.063-91.435 72.082-198.825 79.248-304.72a1410.404 1410.404 0 0 0-2.687-224.019H754.892z" transform="translate(-406.71 -250.469)"/><path style="fill:#03f;fill-opacity:1;stroke:#000;stroke-width:8;stroke-linecap:butt;stroke-linejoin:round;stroke-miterlimit:4;stroke-opacity:1;stroke-dasharray:none" d="M615.969 5.156c-17.146 35.043-31.543 72.487-60.313 97.406-48.326 41.86-125.799 38.579-174.125 80.438-48.326 41.86-56.143 118.985-104.469 160.844-48.325 41.859-125.799 38.578-174.125 80.437-14.264 12.356-29.176 31.46-43.156 52.219 8.076 19.687 17.266 38.884 27.813 57.406 12.687 22.283 27.266 43.372 43.437 63.063 17.652-28.677 38.085-57.466 57.281-74.094 48.326-41.86 125.8-38.578 174.125-80.438 48.326-41.859 56.112-119.047 104.438-160.906 48.326-41.859 125.799-38.547 174.125-80.406 22.985-19.91 36.814-47.814 50.188-76.094a1409.908 1409.908 0 0 0-5.875-119.875h-69.344z"/><path style="fill:#090;stroke:#000;stroke-width:8;stroke-linecap:round;stroke-linejoin:round;stroke-miterlimit:4;stroke-opacity:1;stroke-dasharray:none;fill-opacity:1" d="M743.561 735.906c-2.564 0-5.144.4-7.5 1.219-22.55 7.847-39.874 27.005-56.156 44.469-13.213 14.172-24.985 29.85-35.188 46.437-8.06-6.476-16.73-11.925-26.375-15.281-2.356-.82-4.904-1.219-7.468-1.219s-5.144.4-7.5 1.219c-22.55 7.847-39.874 27.005-56.157 44.469-.205.22-.42.435-.625.656 55.649 63.774 128.478 111.573 208.313 135.219 74.404-22.038 142.72-65.033 196.719-122.407a280.932 280.932 0 0 0-11.75-13.468c-16.282-17.465-33.606-36.622-56.157-44.469-4.712-1.64-10.256-1.64-14.968 0-9.645 3.356-18.315 8.805-26.375 15.281-10.202-16.588-21.975-32.265-35.188-46.437-16.282-17.465-33.605-36.622-56.156-44.469-2.356-.82-4.905-1.219-7.469-1.219z" transform="translate(-406.71 -250.469)"/><path style="fill:none;stroke:#000;stroke-width:8;stroke-linecap:round;stroke-linejoin:miter;stroke-miterlimit:4;stroke-opacity:1;stroke-dasharray:none" d="M644.717 828.031a192.063 192.063 0 0 1 24.902 25.147 192.053 192.053 0 0 1 19.185 28.077M842.374 828.031a204.3 204.3 0 0 1 21.158 37.388" transform="translate(-406.71 -250.469)"/><path style="fill:none;stroke:#000;stroke-width:10.3125;stroke-linecap:butt;stroke-linejoin:round;stroke-miterlimit:4;stroke-opacity:1;stroke-dasharray:none" d="M417.757 255.635a1410.41 1410.41 0 0 0-2.687 224.019c7.166 105.895 27.185 213.285 79.247 304.72 57.144 100.36 152.432 176.682 260.575 208.713 108.144-32.03 203.433-108.354 260.577-208.713 52.063-91.435 72.082-198.825 79.248-304.72a1410.404 1410.404 0 0 0-2.687-224.019H754.892z" transform="translate(-406.71 -250.469)"/><g transform="rotate(-30 190.37 3432.909)" style="stroke:#000;stroke-opacity:1;fill:#841;fill-opacity:1"><path d="M1796.997 606.25s-18.18 20.042-23.049 32.094c-10.634 26.328-10.459 55.57-11.791 83.687-.935 19.715 2.672 59.157 2.672 59.157s21.363 4 32.168 4c10.794-.001 32.135-4 32.135-4s3.607-39.442 2.672-59.157c-1.333-28.117-1.157-57.36-11.791-83.687-4.868-12.052-23.016-32.094-23.016-32.094z" style="fill:#841;stroke:#000;stroke-width:5;stroke-linecap:round;stroke-linejoin:round;stroke-miterlimit:4;stroke-opacity:1;stroke-dasharray:none;fill-opacity:1"/><path d="m1781.45 465.375 15.53 260.188 15.532-260.188H1781.45z" style="fill:#841;stroke:#000;stroke-width:5;stroke-linecap:round;stroke-linejoin:round;stroke-miterlimit:4;stroke-opacity:1;stroke-dasharray:none;fill-opacity:1"/><rect rx="9.023" ry="9.023" y="438.321" x="1761.268" height="27.054" width="71.425" style="fill:#841;fill-opacity:1;stroke:#000;stroke-width:5;stroke-linecap:round;stroke-linejoin:round;stroke-miterlimit:4;stroke-opacity:1;stroke-dasharray:none;stroke-dashoffset:3.1181097100000001"/></g><g transform="scale(-1 1) rotate(-30 31.896 4024.341)" style="stroke:#000;stroke-opacity:1;fill:#841;fill-opacity:1"><path d="M1796.997 606.25s-18.18 20.042-23.049 32.094c-10.634 26.328-10.459 55.57-11.791 83.687-.935 19.715 2.672 59.157 2.672 59.157s21.363 4 32.168 4c10.794-.001 32.135-4 32.135-4s3.607-39.442 2.672-59.157c-1.333-28.117-1.157-57.36-11.791-83.687-4.868-12.052-23.016-32.094-23.016-32.094z" style="fill:#841;stroke:#000;stroke-width:5;stroke-linecap:round;stroke-linejoin:round;stroke-miterlimit:4;stroke-opacity:1;stroke-dasharray:none;fill-opacity:1"/><path d="m1781.45 465.375 15.53 260.188 15.532-260.188H1781.45z" style="fill:#841;stroke:#000;stroke-width:5;stroke-linecap:round;stroke-linejoin:round;stroke-miterlimit:4;stroke-opacity:1;stroke-dasharray:none;fill-opacity:1"/><rect rx="9.023" ry="9.023" y="438.321" x="1761.268" height="27.054" width="71.425" style="fill:#841;fill-opacity:1;stroke:#000;stroke-width:5;stroke-linecap:round;stroke-linejoin:round;stroke-miterlimit:4;stroke-opacity:1;stroke-dasharray:none;stroke-dashoffset:3.1181097100000001"/></g></svg>
